static/img/clouds.svg

<?xml version="1.0" encoding="UTF-8"?>
<svg width="1200pt" height="1200pt" version="1.1" viewBox="0 0 1200 1200" xmlns="http://www.w3.org/2000/svg">
 <g>
  <path d="m649.09 434.88c-9.1367-0.42578-18.363-0.007812-27.535 1.4648-64.262 10.133-112.73 64.164-115.96 129.24-1.2695 16.156 23.234 17.406 23.617 1.2031 2.6836-54.059 42.742-98.652 96.082-107.05h0.046876c7.4297-1.2031 15-1.5586 22.648-1.2031h0.046875c45.535 2.0312 85.395 30.234 101.52 72.781 2.5156 6.668 10.309 9.6133 16.605 6.2734 22.566-11.973 50.016-8.7422 70.066 7.6055 19.922 16.242 28.199 42.805 21.035 67.527-5.2891 15.609 18.793 22.609 22.695 6.5977 9.7891-33.77-1.5469-70.227-28.781-92.43-23.867-19.465-55.652-25.648-84.273-15.496-24.648-45.918-66.391-74.164-117.76-76.473z"/>
  <path d="m530.86 563.65c-24.523-5.9336-50.652-4.9688-75.461 3.5508-49.617 17.043-85.141 61.367-91.422 113.88-0.47266 3.1641 0.35547 6.3828 2.293 8.9219 1.9375 2.543 4.8242 4.1914 8 4.5742 3.1719 0.37891 6.3672-0.54297 8.8516-2.5547s4.0469-4.9453 4.3359-8.1289c5.2188-43.641 34.621-80.246 75.602-94.32 40.98-14.074 86.199-3.1797 116.52 28.18h-0.003906c2.1602 2.3359 5.168 3.7031 8.3477 3.793 3.1797 0.09375 6.2617-1.1016 8.5508-3.3086 2.2891-2.207 3.5938-5.2461 3.6172-8.4258 0.023437-3.1836-1.2383-6.2383-3.4961-8.4805-18.301-18.93-41.207-31.75-65.73-37.684z"/>
  <path d="m410.75 482.75c-44.668-6.2969-86.312 24.891-93.176 69.645-6.8633 44.754 23.473 87.09 67.945 94.645 3.0898 0.52734 6.2617-0.19531 8.8164-2.0078 2.5586-1.8125 4.2891-4.5664 4.8164-7.6562 0.52734-3.0859-0.19531-6.2578-2.0117-8.8164-1.8125-2.5547-4.5664-4.2891-7.6562-4.8125-31.926-5.4258-53.527-35.418-48.57-67.754 4.957-32.336 34.496-54.379 66.559-49.859 32.062 4.5195 54.422 33.906 50.371 66.371-0.46875 3.1484 0.35156 6.3516 2.2734 8.8867 1.9258 2.5352 4.793 4.1836 7.9531 4.5781 3.1562 0.39062 6.3398-0.50781 8.8281-2.4961 2.4844-1.9883 4.0625-4.8945 4.3789-8.0625 5.6094-44.93-25.859-86.363-70.527-92.664z"/>
  <path d="m298.76 447.55-16.742 16.652 25.371 25.461 16.742-16.695z" fill-rule="evenodd"/>
  <path d="m497.52 447.55-25.371 25.414 16.742 16.695 25.324-25.461z" fill-rule="evenodd"/>
  <path d="m307.39 638.37-25.371 25.414 16.742 16.695 25.371-25.461z" fill-rule="evenodd"/>
  <path d="m552.77 718.07c-3.1523-0.035156-6.1875 1.1953-8.4297 3.4102-2.2422 2.2188-3.5039 5.2422-3.5039 8.3945 0 3.1562 1.2617 6.1758 3.5039 8.3945s5.2773 3.4492 8.4297 3.4141h82.336c3.1523 0.035156 6.1914-1.1953 8.4336-3.4141 2.2383-2.2188 3.5-5.2383 3.5-8.3945 0-3.1523-1.2617-6.1758-3.5-8.3945-2.2422-2.2148-5.2812-3.4453-8.4336-3.4102z" fill-rule="evenodd"/>
  <path d="m529.48 765.3c-3.1523-0.03125-6.1875 1.1953-8.4297 3.4141-2.2422 2.2188-3.5039 5.2422-3.5039 8.3945 0 3.1523 1.2617 6.1758 3.5039 8.3945 2.2422 2.2188 5.2773 3.4492 8.4297 3.4141h117.76c3.1523 0.035157 6.1875-1.1953 8.4297-3.4141s3.5039-5.2422 3.5039-8.3945c0-3.1523-1.2617-6.1758-3.5039-8.3945s-5.2773-3.4453-8.4297-3.4141z" fill-rule="evenodd"/>
  <path d="m499.82 777.12c0 3.1328-1.2461 6.1367-3.4609 8.3516-2.2148 2.2148-5.2188 3.457-8.3477 3.457-3.1328 0-6.1367-1.2422-8.3516-3.457s-3.457-5.2188-3.457-8.3516c0-3.1289 1.2422-6.1328 3.457-8.3477 2.2148-2.2148 5.2188-3.457 8.3516-3.457 3.1289 0 6.1328 1.2422 8.3477 3.457 2.2148 2.2148 3.4609 5.2188 3.4609 8.3477z"/>
  <path d="m688.89 765.3c-3.1523-0.03125-6.1875 1.1953-8.4297 3.4141-2.2422 2.2188-3.5039 5.2422-3.5039 8.3945 0 3.1523 1.2617 6.1758 3.5039 8.3945 2.2422 2.2188 5.2773 3.4492 8.4297 3.4141h41.008c3.1523 0.035157 6.1914-1.1953 8.4297-3.4141 2.2422-2.2188 3.5039-5.2422 3.5039-8.3945 0-3.1523-1.2617-6.1758-3.5039-8.3945-2.2383-2.2188-5.2773-3.4453-8.4297-3.4141z" fill-rule="evenodd"/>
  <path d="m777.32 765.3c-3.1523-0.03125-6.1914 1.1953-8.4336 3.4141-2.2422 2.2188-3.5 5.2422-3.5 8.3945 0 3.1562 1.2578 6.1758 3.5 8.3945 2.2422 2.2188 5.2812 3.4492 8.4336 3.4141h35.102c3.1523 0.035157 6.1875-1.1953 8.4297-3.4141 2.2422-2.2188 3.5039-5.2383 3.5039-8.3945 0-3.1523-1.2617-6.1758-3.5039-8.3945-2.2422-2.2188-5.2773-3.4453-8.4297-3.4141z" fill-rule="evenodd"/>
  <path d="m694.49 729.89c0 3.1289-1.2422 6.1328-3.457 8.3477-2.2148 2.2148-5.2188 3.457-8.3516 3.457-3.1328 0-6.1328-1.2422-8.3477-3.457-2.2148-2.2148-3.4609-5.2188-3.4609-8.3477 0-3.1328 1.2461-6.1367 3.4609-8.3516 2.2148-2.2148 5.2148-3.457 8.3477-3.457 3.1328 0 6.1367 1.2422 8.3516 3.457 2.2148 2.2148 3.457 5.2188 3.457 8.3516z"/>
  <path d="m476.21 670.84c-3.1562-0.035156-6.1914 1.1953-8.4336 3.4141-2.2422 2.2148-3.5039 5.2383-3.5039 8.3945 0 3.1523 1.2617 6.1758 3.5039 8.3906 2.2422 2.2188 5.2773 3.4492 8.4336 3.4141h241.75c3.1523 0.035156 6.1875-1.1953 8.4297-3.4141 2.2422-2.2148 3.5039-5.2383 3.5039-8.3906 0-3.1562-1.2617-6.1797-3.5039-8.3945-2.2422-2.2188-5.2773-3.4492-8.4297-3.4141z" fill-rule="evenodd"/>
  <path d="m765.51 670.84c-3.1523-0.035156-6.1914 1.1953-8.4297 3.4141-2.2422 2.2148-3.5039 5.2383-3.5039 8.3945 0 3.1523 1.2617 6.1758 3.5039 8.3906 2.2383 2.2188 5.2773 3.4492 8.4297 3.4141h94.145c3.1523 0.035156 6.1875-1.1953 8.4297-3.4141 2.2422-2.2148 3.5039-5.2383 3.5039-8.3906 0-3.1562-1.2617-6.1797-3.5039-8.3945-2.2422-2.2188-5.2773-3.4492-8.4297-3.4141z" fill-rule="evenodd"/>
  <path d="m688.75 611.8c-3.1523-0.035156-6.1914 1.1953-8.4297 3.4141-2.2422 2.2188-3.5039 5.2422-3.5039 8.3945s1.2617 6.1758 3.5039 8.3945c2.2383 2.2188 5.2773 3.4453 8.4297 3.4141h35.102c3.1523 0.03125 6.1914-1.1953 8.4336-3.4141 2.2383-2.2188 3.5-5.2422 3.5-8.3945s-1.2617-6.1758-3.5-8.3945c-2.2422-2.2188-5.2812-3.4492-8.4336-3.4141z" fill-rule="evenodd"/>
  <path d="m806.84 611.8c-3.1523-0.035156-6.1875 1.1953-8.4297 3.4141s-3.5039 5.2422-3.5039 8.3945 1.2617 6.1758 3.5039 8.3945 5.2773 3.4453 8.4297 3.4141h123.66c3.1523 0.03125 6.1914-1.1953 8.4297-3.4141 2.2422-2.2188 3.5039-5.2422 3.5039-8.3945s-1.2617-6.1758-3.5039-8.3945c-2.2383-2.2188-5.2773-3.4492-8.4297-3.4141z" fill-rule="evenodd"/>
  <path d="m777.15 623.62c0 6.5195-5.2852 11.809-11.809 11.809-6.5234 0-11.809-5.2891-11.809-11.809 0-6.5234 5.2852-11.809 11.809-11.809 6.5234 0 11.809 5.2852 11.809 11.809z"/>
  <path d="m245.76 552.76v23.617h35.426v-23.617z" fill-rule="evenodd"/>
  <path d="m387.46 411.07v35.422h23.617v-35.422z" fill-rule="evenodd"/>
 </g>
</svg>

<?xml version="1.0" encoding="UTF-8" standalone="no"?>
<!DOCTYPE svg PUBLIC "-//W3C//DTD SVG 1.1//EN" "http://www.w3.org/Graphics/SVG/1.1/DTD/svg11.dtd">
<svg width="100%" height="100%" viewBox="0 0 1200 1200" version="1.1" xmlns="http://www.w3.org/2000/svg" xmlns:xlink="http://www.w3.org/1999/xlink" xml:space="preserve" xmlns:serif="http://www.serif.com/" style="fill-rule:evenodd;clip-rule:evenodd;stroke-linejoin:round;stroke-miterlimit:2;">
    <g transform="matrix(1.62583,0,0,1.62583,-365.804,-375.498)">
        <path d="M649.09,434.88C639.953,434.454 630.727,434.872 621.555,436.345C557.293,446.478 508.825,500.509 505.595,565.585C504.326,581.741 528.829,582.991 529.212,566.788C531.896,512.729 571.954,468.136 625.294,459.738L625.341,459.738C632.771,458.535 640.341,458.179 647.989,458.535L648.036,458.535C693.571,460.566 733.431,488.769 749.556,531.316C752.071,537.984 759.865,540.929 766.161,537.589C788.727,525.616 816.177,528.847 836.227,545.195C856.149,561.437 864.426,588 857.262,612.722C851.973,628.331 876.055,635.331 879.957,619.319C889.746,585.549 878.41,549.092 851.176,526.889C827.309,507.424 795.524,501.241 766.903,511.393C742.255,465.475 700.512,437.229 649.143,434.92L649.09,434.88Z" style="fill:#fff;fill-rule:nonzero;"/>
        <path d="M530.86,563.65C506.337,557.716 480.208,558.681 455.399,567.201C405.782,584.244 370.258,628.568 363.977,681.081C363.504,684.245 364.332,687.464 366.27,690.003C368.208,692.546 371.094,694.194 374.27,694.577C377.442,694.956 380.637,694.034 383.122,692.022C385.606,690.01 387.169,687.077 387.458,683.893C392.676,640.252 422.078,603.647 463.059,589.573C504.039,575.499 549.258,586.394 579.579,617.753L579.576,617.753C581.736,620.089 584.744,621.456 587.923,621.546C591.103,621.64 594.185,620.445 596.474,618.238C598.763,616.031 600.068,612.992 600.091,609.812C600.115,606.628 598.853,603.574 596.595,601.331C578.294,582.401 555.388,569.581 530.865,563.647L530.86,563.65Z" style="fill:#fff;fill-rule:nonzero;"/>
        <path d="M410.75,482.75C366.082,476.453 324.438,507.641 317.574,552.395C310.711,597.149 341.047,639.485 385.519,647.04C388.609,647.567 391.781,646.845 394.335,645.032C396.894,643.22 398.625,640.466 399.152,637.376C399.679,634.29 398.956,631.118 397.14,628.56C395.328,626.005 392.574,624.271 389.484,623.747C357.558,618.321 335.957,588.329 340.914,555.993C345.871,523.657 375.41,501.614 407.473,506.134C439.535,510.654 461.895,540.04 457.844,572.505C457.375,575.654 458.195,578.857 460.117,581.392C462.043,583.927 464.91,585.575 468.07,585.97C471.227,586.361 474.41,585.462 476.898,583.474C479.383,581.486 480.961,578.579 481.277,575.411C486.887,530.481 455.418,489.048 410.75,482.747L410.75,482.75Z" style="fill:#fff;fill-rule:nonzero;"/>
        <path d="M298.76,447.55L282.018,464.202L307.389,489.663L324.131,472.968L298.76,447.55Z" style="fill:#fff;"/>
        <path d="M497.52,447.55L472.149,472.964L488.891,489.659L514.215,464.198L497.52,447.55Z" style="fill:#fff;"/>
        <path d="M307.39,638.37L282.019,663.784L298.761,680.479L324.132,655.018L307.39,638.37Z" style="fill:#fff;"/>
        <path d="M552.77,718.07C549.618,718.035 546.583,719.265 544.34,721.48C542.098,723.699 540.836,726.722 540.836,729.875C540.836,733.031 542.098,736.051 544.34,738.269C546.583,740.488 549.618,741.718 552.77,741.683L635.106,741.683C638.258,741.718 641.297,740.488 643.54,738.269C645.778,736.05 647.04,733.031 647.04,729.875C647.04,726.722 645.778,723.699 643.54,721.48C641.297,719.265 638.258,718.035 635.106,718.07L552.77,718.07Z" style="fill:#fff;"/>
        <path d="M529.48,765.3C526.328,765.269 523.293,766.495 521.05,768.714C518.808,770.933 517.546,773.956 517.546,777.109C517.546,780.261 518.808,783.284 521.05,785.503C523.293,787.722 526.328,788.952 529.48,788.917L647.24,788.917C650.392,788.952 653.428,787.722 655.67,785.503C657.912,783.284 659.174,780.261 659.174,777.109C659.174,773.956 657.912,770.933 655.67,768.714C653.428,766.495 650.392,765.269 647.24,765.3L529.48,765.3Z" style="fill:#fff;"/>
        <path d="M499.82,777.12C499.82,780.253 498.574,783.257 496.359,785.472C494.144,787.686 491.14,788.929 488.011,788.929C484.879,788.929 481.875,787.686 479.66,785.472C477.445,783.257 476.203,780.253 476.203,777.12C476.203,773.991 477.445,770.987 479.66,768.772C481.875,766.558 484.879,765.315 488.011,765.315C491.14,765.315 494.144,766.558 496.359,768.772C498.574,770.987 499.82,773.991 499.82,777.12Z" style="fill:#fff;fill-rule:nonzero;"/>
        <path d="M688.89,765.3C685.738,765.269 682.703,766.495 680.46,768.714C678.218,770.933 676.956,773.956 676.956,777.109C676.956,780.261 678.218,783.284 680.46,785.503C682.703,787.722 685.738,788.952 688.89,788.917L729.898,788.917C733.05,788.952 736.089,787.722 738.328,785.503C740.57,783.284 741.832,780.261 741.832,777.109C741.832,773.956 740.57,770.933 738.328,768.714C736.089,766.495 733.05,765.269 729.898,765.3L688.89,765.3Z" style="fill:#fff;"/>
        <path d="M777.32,765.3C774.168,765.269 771.129,766.495 768.886,768.714C766.644,770.933 765.386,773.956 765.386,777.109C765.386,780.265 766.644,783.284 768.886,785.503C771.129,787.722 774.168,788.952 777.32,788.917L812.422,788.917C815.574,788.952 818.61,787.722 820.852,785.503C823.094,783.284 824.356,780.265 824.356,777.109C824.356,773.956 823.094,770.933 820.852,768.714C818.61,766.495 815.574,765.269 812.422,765.3L777.32,765.3Z" style="fill:#fff;"/>
        <path d="M694.49,729.89C694.49,733.019 693.248,736.023 691.033,738.238C688.818,740.453 685.814,741.695 682.681,741.695C679.549,741.695 676.549,740.453 674.334,738.238C672.119,736.023 670.873,733.019 670.873,729.89C670.873,726.757 672.119,723.753 674.334,721.538C676.549,719.324 679.549,718.081 682.681,718.081C685.814,718.081 688.818,719.324 691.033,721.538C693.248,723.753 694.49,726.757 694.49,729.89Z" style="fill:#fff;fill-rule:nonzero;"/>
        <path d="M476.21,670.84C473.054,670.805 470.019,672.035 467.776,674.254C465.534,676.469 464.272,679.492 464.272,682.649C464.272,685.801 465.534,688.824 467.776,691.039C470.019,693.258 473.054,694.488 476.21,694.453L717.96,694.453C721.112,694.488 724.148,693.258 726.39,691.039C728.632,688.824 729.894,685.801 729.894,682.649C729.894,679.492 728.632,676.469 726.39,674.254C724.148,672.035 721.112,670.805 717.96,670.84L476.21,670.84Z" style="fill:#fff;"/>
        <path d="M765.51,670.84C762.358,670.805 759.319,672.035 757.08,674.254C754.838,676.469 753.576,679.492 753.576,682.649C753.576,685.801 754.838,688.824 757.08,691.039C759.319,693.258 762.358,694.488 765.51,694.453L859.655,694.453C862.807,694.488 865.843,693.258 868.085,691.039C870.327,688.824 871.589,685.801 871.589,682.649C871.589,679.492 870.327,676.469 868.085,674.254C865.843,672.035 862.807,670.805 859.655,670.84L765.51,670.84Z" style="fill:#fff;"/>
        <path d="M688.75,611.8C685.598,611.765 682.559,612.995 680.32,615.214C678.078,617.433 676.816,620.456 676.816,623.609C676.816,626.761 678.078,629.784 680.32,632.003C682.559,634.222 685.598,635.448 688.75,635.417L723.852,635.417C727.004,635.448 730.043,634.222 732.286,632.003C734.524,629.784 735.786,626.761 735.786,623.609C735.786,620.456 734.524,617.433 732.286,615.214C730.043,612.995 727.004,611.765 723.852,611.8L688.75,611.8Z" style="fill:#fff;"/>
        <path d="M806.84,611.8C803.688,611.765 800.653,612.995 798.41,615.214C796.168,617.433 794.906,620.456 794.906,623.609C794.906,626.761 796.168,629.784 798.41,632.003C800.653,634.222 803.688,635.448 806.84,635.417L930.5,635.417C933.652,635.448 936.691,634.222 938.93,632.003C941.172,629.784 942.434,626.761 942.434,623.609C942.434,620.456 941.172,617.433 938.93,615.214C936.691,612.995 933.652,611.765 930.5,611.8L806.84,611.8Z" style="fill:#fff;"/>
        <path d="M777.15,623.62C777.15,630.14 771.865,635.429 765.341,635.429C758.818,635.429 753.532,630.14 753.532,623.62C753.532,617.097 758.817,611.811 765.341,611.811C771.864,611.811 777.15,617.096 777.15,623.62Z" style="fill:#fff;fill-rule:nonzero;"/>
        <rect x="245.76" y="552.76" width="35.426" height="23.617" style="fill:#fff;"/>
        <rect x="387.46" y="411.07" width="23.617" height="35.422" style="fill:#fff;"/>
    </g>
</svg>
